X: 1
T: the Dark Island   [D]
T: Dr Mackay's Farewell to Creagorry
C: Iain McLachlan
R: air, waltz
Z: 1997 by John Chambers <jc:trillian.mit.edu>
N: Used as the theme song to The Dark Island, a 1962 BBB television miniseries.
M: 6/8
L: 1/8
K: D
B \
| "Em"e>Be "Bm"d>ed | "G"B>AG "D"A2 d/e/ | "D"f>ed "Bm"d<aA | "G"f>af "A7"e2B |
| "Em"e>Be "Bm"d>ed | "G"B>AG "D"A2 d/e/ | "D"f>Aa/f/ "A7"e>Af/e/ | "G"d3 "D"d2 :|
|: f/g/ \
| "D"a>AA "D7"f>ed | "G"B<GB "D"A2 d/e/ | "D"f>ed "Bm"d<aA | "G"f>af "A7"e2B |
| "Em"e>Be "Bm"d>ed | "G"B>AG "D"A2 d/e/ | "D"f>Aa/f/ "A7"e>Af/e/ | "G"d3 "D"d2 :|[aG]

%%sep 1 1 500

